src/ui/truck-fill.svg

<?xml version="1.0" encoding="UTF-8"?><svg xmlns="http://www.w3.org/2000/svg" viewBox="0 0 32 32"><defs><style>.uuid-5b5f0f9d-18af-4455-a7c4-4ff3155756b3{fill:none;}.uuid-5b5f0f9d-18af-4455-a7c4-4ff3155756b3,.uuid-fe28a4fa-dfd8-457d-8171-06a5db850a0e{stroke-width:0px;}.uuid-fe28a4fa-dfd8-457d-8171-06a5db850a0e{fill:#151515;}</style></defs><g id="uuid-38e61345-a95d-4e0b-9f0d-48020d6e10f0"><rect class="uuid-5b5f0f9d-18af-4455-a7c4-4ff3155756b3" x="0" width="32" height="32"/></g><g id="uuid-203fb7b9-c92c-43e3-b0c2-528616bb277e"><path class="uuid-fe28a4fa-dfd8-457d-8171-06a5db850a0e" d="M30.9921,15.9607c-.0043-.1111-.024-.2211-.0659-.3268-.0038-.0096-.0049-.0201-.009-.0297-.0015-.0034-.0016-.0071-.0032-.0104l-3.5596-8c-.1611-.3613-.5186-.5938-.9141-.5938h-5.4404v-1.5c0-.8271-.6729-1.5-1.5-1.5H2.5c-.8271,0-1.5.6729-1.5,1.5v16c0,.8271.6729,1.5,1.5,1.5h.642c-.0836.3215-.142.6526-.142,1,0,2.2061,1.7939,4,4,4s4-1.7939,4-4c0-.3474-.0584-.6785-.142-1h10.2839c-.0836.3215-.142.6526-.142,1,0,2.2061,1.7939,4,4,4s4-1.7939,4-4c0-.3474-.0584-.6785-.142-1h.642c.8271,0,1.5-.6729,1.5-1.5v-5.5c0-.0139-.0074-.0255-.0079-.0393ZM7,26c-1.1025,0-2-.8975-2-2s.8975-2,2-2,2,.8975,2,2-.8975,2-2,2ZM21,9h4.791l2.6699,6h-7.4609v-6ZM25,26c-1.1025,0-2-.8975-2-2s.8975-2,2-2,2,.8975,2,2-.8975,2-2,2ZM29,21h-1.382c-.7034-.6146-1.6124-1-2.618-1s-1.9146.3854-2.618,1h-1.382v-4h8v4Z"/></g></svg>

<svg xmlns="http://www.w3.org/2000/svg" viewBox="0 0 32 32">
  <path d="M0 0h32v32H0z" fill="none"/>
  <path d="M30.992 15.96a.984.984 0 0 0-.066-.326l-.009-.03c-.001-.003-.001-.007-.003-.01l-3.56-8A1 1 0 0 0 26.44 7H21V5.5c0-.827-.673-1.5-1.5-1.5h-17C1.673 4 1 4.673 1 5.5v16c0 .827.673 1.5 1.5 1.5h.642A3.951 3.951 0 0 0 3 24c0 2.206 1.794 4 4 4s4-1.794 4-4c0-.347-.058-.678-.142-1h10.284A3.951 3.951 0 0 0 21 24c0 2.206 1.794 4 4 4s4-1.794 4-4c0-.347-.058-.678-.142-1h.642c.827 0 1.5-.673 1.5-1.5V16c0-.014-.007-.025-.008-.04ZM7 26c-1.103 0-2-.897-2-2s.897-2 2-2 2 .897 2 2-.897 2-2 2ZM21 9h4.791l2.67 6H21V9Zm4 17c-1.103 0-2-.897-2-2s.897-2 2-2 2 .897 2 2-.897 2-2 2Zm4-5h-1.382c-.703-.615-1.612-1-2.618-1s-1.915.385-2.618 1H21v-4h8v4Z" fill="#151515"/>
</svg>
